src/pentobi/icons/pentobi-piece-clear.svg

<?xml version="1.0" encoding="UTF-8" standalone="no"?>
<svg xmlns:rdf="http://www.w3.org/1999/02/22-rdf-syntax-ns#" xmlns="http://www.w3.org/2000/svg" height="16" width="16" version="1.1" xmlns:cc="http://creativecommons.org/ns#" xmlns:dc="http://purl.org/dc/elements/1.1/">
<defs>
<linearGradient id="a" y2="-1.188" gradientUnits="userSpaceOnUse" x2="10.558" gradientTransform="matrix(-.6622842 .6655308 -.6622842 -.6655308 17.38665 8.167917)" y1="13.944" x1="1.8461">
<stop stop-color="#c8cac6" offset="0"/>
<stop stop-color="#a0a39d" offset="1"/>
</linearGradient>
</defs>
<path stroke-linejoin="round" d="m3.5779 1.4998-1.9903 2.0001 3.9514 3.9707-4.0392 4.0294 1.9903 2 4.0099-4.0294 4.01 4.0294 1.99-1.97-4.0097-4.0594 3.9517-3.9413-1.991-2.0001-3.951 3.9413-3.9221-3.9707z" fill-rule="evenodd" stroke="#555753" stroke-width=".9996669" fill="url(#a)"/>
</svg>

<?xml version="1.0" encoding="UTF-8" standalone="no"?>
<svg xmlns:rdf="http://www.w3.org/1999/02/22-rdf-syntax-ns#" xmlns="http://www.w3.org/2000/svg" height="16" width="16" version="1.1" xmlns:cc="http://creativecommons.org/ns#" xmlns:dc="http://purl.org/dc/elements/1.1/">
<defs>
<linearGradient id="linearGradient4070" x1="1.8461" gradientUnits="userSpaceOnUse" y1="13.944" gradientTransform="matrix(-0.66228421,0.66553078,-0.66228421,-0.66553078,17.386647,8.1679171)" x2="10.558" y2="-1.188">
<stop stop-color="#c8cac6" offset="0"/>
<stop stop-color="#a0a39d" offset="1"/>
</linearGradient>
</defs>
<metadata>
<rdf:RDF>
<cc:Work rdf:about="">
<dc:format>image/svg+xml</dc:format>
<dc:type rdf:resource="http://purl.org/dc/dcmitype/StillImage"/>
<dc:title/>
</cc:Work>
</rdf:RDF>
</metadata>
<path stroke-linejoin="round" d="M3.5779,1.4998,1.5876,3.4999,5.539,7.4706,1.4998,11.5,3.4901,13.5,7.5,9.4706,11.51,13.5,13.5,11.53,9.4903,7.4706,13.442,3.5293,11.451,1.5292,7.5,5.4705,3.5779,1.4998z" fill-rule="evenodd" stroke="#555753" stroke-miterlimit="4" stroke-dasharray="none" stroke-width="0.99966687" fill="url(#linearGradient4070)"/>
</svg>
